X:1
T:Grade 6 - Dominant 7th Arpeggios
T:Grade 7 Flute - Dominant 7th Arpeggios
L:1/8
M:4/4
K:D
V:1 treble nm="Piano" snm="Pno."
V:1
"^Dominant 7th in the key of D" A2 c2 e2 g2 | a2 c'2 e'2 g'2 | a'2 g'2 e'2 c'2 | a2 g2 e2 c2 | %4
 A4 z4 |][K:Db]"^Dominant 7th in the key of Db" A2 c2 e2 g2 | a2 c'2 e'2 g'2 | a'2 g'2 e'2 c'2 | %8
 a2 g2 e2 c2 | A4 z4 |][K:F#]"^Dominant 7th in the key of F#" C2 E2 G2 B2 | c2 e2 g2 b2 | %12
 c'2 b2 g2 e2 | c2 B2 G2 E2 | C4 z4 |][K:G]"^Dominant 7th in the key of G" D2 F2 A2 c2 | %16
 d2 f2 a2 c'2 | d'2 c'2 a2 f2 | d2 c2 A2 F2 | D4 z4 |] %20
[K:A]"^Dominant 7th in the key of A" E2 G2 B2 d2 | e2 g2 b2 d'2 | e'2 d'2 b2 g2 | e2 d2 B2 G2 | %24
 E4 z4 |][K:Ab]"^Dominant 7th in the key of Ab" E2 G2 B2 d2 | e2 g2 b2 d'2 | e'2 d'2 b2 g2 | %28
 e2 d2 B2 G2 | E4 z4 |] %30

